!!!OTL: Das Kanapee (292), S. 606f
!!!id: T0482
**kern
*clefG2
*k[f#c#]
*D:
{8f#
8f#
8f#
=1
4.f#
8f#
8f#
8f#
8e
8d
=2
4a
4e}
8r
=3
{8a
8a
8a
=4
4a
8r
8a
4a
8b
8a
=5
4f#}
4.r
=6
{8f#
8f#
8f#
=7
4.f#
8f#
8f#
8f#
8e
8d
=8
4a
4e}
8r
=9
{8a
8a
8a
=10
4.a
8a
4a
8b
8a
=11
4f#}
4.r
=12
{8a
8a
8a
=13
8g
8f#
4e
8r
8dd
8dd
8dd
=14
8dd
8dd
4a}
8r
=15
{8a
8a
8dd
=16
4.cc#
8b
8a
8g
8b
8b
=17
4a}
4.r
=18
{8a
8a
8a
=19
8g
8f#
4e
8r
8dd
8dd
8dd
=20
8dd
8dd
4a}
8r
=21
{8a
8a
8dd
=22
4.cc#
8b
8a
8g
8f#
8e
=23
4d}
4.r
==
*-
!!!minrhy: 8
!!!meters: 4/4 ]  ZZ[8
!!!cut: Das Kanapee (292), S. 606f
!!!reg: Luxemburg
!!!trd: Singendes Volk, Esch-Alzette 1937 posth.
!!!rhy1: XXX  X_.XXXXX  X_X_0
!!!rhy2: XXX  X_0XX_XX  X_0_.
!!!key: T0482  08  D 4/4 ]  ZZ[8
!!!mod: HEPTATONIK IONISCH]  AMBITUS[8
!!!kad: 23235551
!!!akz: 335_553_335_553_4+1_755_4+1_751_
!!!fot: 'a__b__a__bv_c__d__c__dw_
!!!for: 'a__b__a__bv_c__aw_c__aw_
!!!fok: '^d_\__^d_\__S__^__S__^d_
!! PHRAS[AUFTAKTIG]
!!!fkt: ???
!!!bem: StraPen, fff Witry, 17.1.1933
!! THILL, Mathias
!! PR[50] 2K[3] 2G[8] 3K[0] 3G[6] 4A[6] 4Ü[0] 5A[3] 6K[0] 6G[0]
!! 7K[0] 7G[0] 8A[0] MEHR[0] SI[25] ABS[36] SR[11] SP[14]
!! ST[13] 2k[6] 2g[8] 3k[0] 3g[8] 4d[0] 4ü[0] 5d[3] 6k[0] 6g[0]
!! 7k[0] 7g[0] 8d[0] mehr[0] si[25] dm[0] sr[14] sp[11]
!! 1F[59] 2F[41] 3F[0] 4F[0] LF[0] 2P[0] 3P[0] 4P[0] TRI[0] DF[2] AB[37]
!! TF[0] U3K[0] U3[0] U4[0] U4Ü[0] U5[14] U6K[0] U6[5] U7K[0] U7[8]
!! N1[46] N2K[0] N2[14] N3K[0] N3[14] N4[0] N4Ü[0] N5[0] N6K[0] N6[0]
!!!n7k: 0] N7[0] O1[0] O2K[0] O2[0] O3K[0] O3[0] HÖ[0
